src/assets/images/birthday.svg

<svg width="50" height="50" viewBox="0 0 50 50" fill="none" xmlns="http://www.w3.org/2000/svg">
<path d="M48.2564 49.6524H1.41931C1.04288 49.6524 0.681877 49.5029 0.415705 49.2367C0.149534 48.9706 0 48.6096 0 48.2331V45.3945C0 45.0181 0.149534 44.6571 0.415705 44.3909C0.681877 44.1248 1.04288 43.9752 1.41931 43.9752H48.2564C48.6328 43.9752 48.9938 44.1248 49.26 44.3909C49.5262 44.6571 49.6757 45.0181 49.6757 45.3945V48.2331C49.6757 48.6096 49.5262 48.9706 49.26 49.2367C48.9938 49.5029 48.6328 49.6524 48.2564 49.6524ZM1.41931 45.3945V48.2331H48.2564V45.3945H1.41931Z" fill="url(#paint0_linear)"/>
<path d="M46.1275 45.3945H3.54828C3.36006 45.3945 3.17956 45.3197 3.04648 45.1866C2.91339 45.0535 2.83862 44.873 2.83862 44.6848V33.3304C2.84013 32.0133 3.36398 30.7507 4.29525 29.8194C5.22653 28.8881 6.48917 28.3643 7.8062 28.3628H41.8695C43.1866 28.3643 44.4492 28.8881 45.3805 29.8194C46.3118 30.7507 46.8356 32.0133 46.8371 33.3304V44.6848C46.8371 44.873 46.7624 45.0535 46.6293 45.1866C46.4962 45.3197 46.3157 45.3945 46.1275 45.3945ZM4.25793 43.9752H45.4178V33.3304C45.4167 32.3896 45.0425 31.4878 44.3773 30.8226C43.7121 30.1574 42.8103 29.7832 41.8695 29.7821H7.8062C6.86548 29.7832 5.96362 30.1574 5.29844 30.8226C4.63325 31.4878 4.25906 32.3896 4.25793 33.3304V43.9752Z" fill="url(#paint1_linear)"/>
<path d="M39.0309 40.0721C37.5465 40.0826 36.1155 39.5183 35.0377 38.4974C34.2072 37.6872 33.0929 37.2337 31.9326 37.2337C30.7724 37.2337 29.6581 37.6872 28.8275 38.4974C27.7447 39.5092 26.3181 40.0721 24.8361 40.0721C23.3541 40.0721 21.9275 39.5092 20.8447 38.4974C20.0143 37.6871 18.9001 37.2335 17.7399 37.2335C16.5797 37.2335 15.4655 37.6871 14.6352 38.4974C13.5529 39.5094 12.1265 40.0724 10.6448 40.0724C9.16309 40.0724 7.73672 39.5094 6.65443 38.4974C6.24529 38.0928 5.76031 37.7728 5.2273 37.5559C4.69429 37.3391 4.12371 37.2295 3.54828 37.2335C3.36006 37.2335 3.17956 37.1588 3.04648 37.0257C2.91339 36.8926 2.83862 36.7121 2.83862 36.5239C2.83862 36.3357 2.91339 36.1552 3.04648 36.0221C3.17956 35.889 3.36006 35.8142 3.54828 35.8142C5.03171 35.8038 6.46156 36.3681 7.53795 37.3889C8.36779 38.1991 9.48153 38.6526 10.6413 38.6526C11.801 38.6526 12.9147 38.1991 13.7446 37.3889C14.8274 36.3769 16.2542 35.814 17.7364 35.814C19.2185 35.814 20.6453 36.3769 21.7282 37.3889C22.5584 38.1992 23.6725 38.6528 24.8325 38.6528C25.9926 38.6528 27.1067 38.1992 27.9369 37.3889C29.02 36.377 30.4469 35.8142 31.9291 35.8142C33.4113 35.8142 34.8382 36.377 35.9212 37.3889C36.7524 38.1994 37.8673 38.653 39.0281 38.653C40.1889 38.653 41.3038 38.1994 42.135 37.3889C43.2123 36.3678 44.6431 35.8035 46.1275 35.8142C46.3157 35.8142 46.4962 35.889 46.6293 36.0221C46.7624 36.1552 46.8371 36.3357 46.8371 36.5239C46.8371 36.7121 46.7624 36.8926 46.6293 37.0257C46.4962 37.1588 46.3157 37.2335 46.1275 37.2335C45.5521 37.2298 44.9816 37.3395 44.4486 37.5564C43.9156 37.7732 43.4306 38.093 43.0213 38.4974C41.9442 39.5176 40.5144 40.0818 39.0309 40.0721Z" fill="url(#paint2_linear)"/>
<path d="M41.16 29.7821H8.51593C8.32772 29.7821 8.14721 29.7073 8.01413 29.5743C7.88104 29.4412 7.80627 29.2607 7.80627 29.0725V18.4277C7.8074 17.4869 8.1816 16.5851 8.84678 15.9199C9.51197 15.2547 10.4138 14.8805 11.3545 14.8794H38.3214C39.2621 14.8805 40.1639 15.2547 40.8291 15.9199C41.4943 16.5851 41.8685 17.4869 41.8696 18.4277V29.0725C41.8696 29.2607 41.7949 29.4412 41.6618 29.5743C41.5287 29.7073 41.3482 29.7821 41.16 29.7821ZM9.22558 28.3628H40.4503V18.4277C40.4503 17.863 40.226 17.3215 39.8268 16.9223C39.4275 16.523 38.886 16.2987 38.3214 16.2987H11.3545C10.7899 16.2987 10.2484 16.523 9.84914 16.9223C9.44988 17.3215 9.22558 17.863 9.22558 18.4277V28.3628Z" fill="url(#paint3_linear)"/>
<path d="M35.7169 24.8379C34.541 24.8487 33.4066 24.403 32.5526 23.5946C31.9452 22.9969 31.1271 22.6619 30.275 22.6619C29.4228 22.6619 28.6047 22.9969 27.9973 23.5946C27.1377 24.3938 26.0075 24.8381 24.8337 24.8381C23.6599 24.8381 22.5297 24.3938 21.6701 23.5946C21.063 22.997 20.2453 22.6621 19.3935 22.6621C18.5417 22.6621 17.724 22.997 17.1169 23.5946C16.2576 24.3939 15.1276 24.8382 13.954 24.8382C12.7804 24.8382 11.6504 24.3939 10.7911 23.5946C10.4927 23.2959 10.1379 23.0596 9.7473 22.8995C9.35667 22.7394 8.93807 22.6587 8.51593 22.6621C8.32772 22.6621 8.14721 22.5873 8.01413 22.4542C7.88104 22.3211 7.80627 22.1406 7.80627 21.9524C7.80627 21.7642 7.88104 21.5837 8.01413 21.4506C8.14721 21.3175 8.32772 21.2428 8.51593 21.2428C9.69116 21.2324 10.8246 21.6781 11.6781 22.4861C12.285 23.0836 13.1024 23.4184 13.954 23.4184C14.8056 23.4184 15.623 23.0836 16.2299 22.4861C17.0895 21.6868 18.2197 21.2426 19.3935 21.2426C20.5673 21.2426 21.6975 21.6868 22.5571 22.4861C23.1642 23.0836 23.9819 23.4186 24.8337 23.4186C25.6855 23.4186 26.5032 23.0836 27.1103 22.4861C27.9701 21.6867 29.1006 21.2424 30.2746 21.2424C31.4486 21.2424 32.5791 21.6867 33.4389 22.4861C34.0466 23.0839 34.8649 23.4189 35.7173 23.4189C36.5697 23.4189 37.388 23.0839 37.9956 22.4861C38.8497 21.6776 39.984 21.2319 41.16 21.2428C41.3482 21.2428 41.5287 21.3175 41.6618 21.4506C41.7949 21.5837 41.8696 21.7642 41.8696 21.9524C41.8696 22.1406 41.7949 22.3211 41.6618 22.4542C41.5287 22.5873 41.3482 22.6621 41.16 22.6621C40.7373 22.6587 40.3182 22.7394 39.927 22.8994C39.5358 23.0595 39.1803 23.2958 38.8813 23.5946C38.0272 24.403 36.8929 24.8487 35.7169 24.8379Z" fill="url(#paint4_linear)"/>
<path d="M33.3537 16.2987H29.0958C28.9075 16.2987 28.727 16.2239 28.594 16.0908C28.4609 15.9577 28.3861 15.7772 28.3861 15.589V7.07318C28.3861 6.88497 28.4609 6.70446 28.594 6.57138C28.727 6.43829 28.9075 6.36353 29.0958 6.36353H33.3537C33.5419 6.36353 33.7224 6.43829 33.8555 6.57138C33.9886 6.70446 34.0633 6.88497 34.0633 7.07318V15.589C34.0633 15.7772 33.9886 15.9577 33.8555 16.0908C33.7224 16.2239 33.5419 16.2987 33.3537 16.2987ZM29.8054 14.8794H32.644V7.78283H29.8054V14.8794Z" fill="url(#paint5_linear)"/>
<path d="M20.58 16.2987H16.3221C16.1339 16.2987 15.9534 16.2239 15.8203 16.0908C15.6872 15.9577 15.6124 15.7772 15.6124 15.589V7.07318C15.6124 6.88497 15.6872 6.70446 15.8203 6.57138C15.9534 6.43829 16.1339 6.36353 16.3221 6.36353H20.58C20.7682 6.36353 20.9487 6.43829 21.0818 6.57138C21.2149 6.70446 21.2897 6.88497 21.2897 7.07318V15.589C21.2897 15.7772 21.2149 15.9577 21.0818 16.0908C20.9487 16.2239 20.7682 16.2987 20.58 16.2987ZM17.0317 14.8794H19.8703V7.78283H17.0317V14.8794Z" fill="url(#paint6_linear)"/>
<path d="M31.2248 5.94979C30.6601 5.94979 30.1186 5.72549 29.7194 5.32623C29.3201 4.92697 29.0958 4.38546 29.0958 3.82083C29.0958 2.93518 30.1603 1.07731 30.6173 0.319399C30.6852 0.220892 30.7759 0.140351 30.8818 0.0847115C30.9877 0.0290716 31.1055 0 31.2251 0C31.3447 0 31.4626 0.0290716 31.5685 0.0847115C31.6743 0.140351 31.7651 0.220892 31.833 0.319399C32.2893 1.07731 33.3537 2.93447 33.3537 3.82083C33.3537 4.38546 33.1294 4.92697 32.7302 5.32623C32.3309 5.72549 31.7894 5.94979 31.2248 5.94979ZM31.2248 2.13185C30.9108 2.65931 30.6719 3.22803 30.5151 3.82154C30.5151 4.00975 30.5899 4.19025 30.723 4.32334C30.8561 4.45642 31.0366 4.53119 31.2248 4.53119C31.413 4.53119 31.5935 4.45642 31.7266 4.32334C31.8597 4.19025 31.9344 4.00975 31.9344 3.82154C31.7778 3.22776 31.5389 2.65879 31.2248 2.13114V2.13185Z" fill="url(#paint7_linear)"/>
<path d="M31.2248 7.78286C31.0366 7.78286 30.8561 7.70809 30.723 7.575C30.5899 7.44192 30.5151 7.26141 30.5151 7.0732V5.24017C30.5151 5.05196 30.5899 4.87146 30.723 4.73837C30.8561 4.60528 31.0366 4.53052 31.2248 4.53052C31.413 4.53052 31.5935 4.60528 31.7266 4.73837C31.8597 4.87146 31.9344 5.05196 31.9344 5.24017V7.0732C31.9344 7.26141 31.8597 7.44192 31.7266 7.575C31.5935 7.70809 31.413 7.78286 31.2248 7.78286Z" fill="url(#paint8_linear)"/>
<path d="M18.451 5.94979C17.8863 5.94979 17.3448 5.72549 16.9456 5.32623C16.5463 4.92697 16.322 4.38546 16.322 3.82083C16.322 2.93518 17.3865 1.07731 17.8435 0.319399C17.9114 0.220892 18.0021 0.140351 18.108 0.0847115C18.2139 0.0290716 18.3317 0 18.4513 0C18.5709 0 18.6888 0.0290716 18.7946 0.0847115C18.9005 0.140351 18.9913 0.220892 19.0592 0.319399C19.5155 1.07731 20.5799 2.93447 20.5799 3.82083C20.5799 4.38546 20.3556 4.92697 19.9564 5.32623C19.5571 5.72549 19.0156 5.94979 18.451 5.94979ZM18.451 2.13185C18.137 2.65931 17.8981 3.22803 17.7413 3.82154C17.7413 4.00975 17.8161 4.19025 17.9492 4.32334C18.0823 4.45642 18.2628 4.53119 18.451 4.53119C18.6392 4.53119 18.8197 4.45642 18.9528 4.32334C19.0859 4.19025 19.1606 4.00975 19.1606 3.82154C19.004 3.22776 18.7651 2.65879 18.451 2.13114V2.13185Z" fill="url(#paint9_linear)"/>
<path d="M18.451 7.78286C18.2628 7.78286 18.0823 7.70809 17.9492 7.575C17.8161 7.44192 17.7413 7.26141 17.7413 7.0732V5.24017C17.7413 5.05196 17.8161 4.87146 17.9492 4.73837C18.0823 4.60528 18.2628 4.53052 18.451 4.53052C18.6392 4.53052 18.8197 4.60528 18.9528 4.73837C19.0859 4.87146 19.1606 5.05196 19.1606 5.24017V7.0732C19.1606 7.26141 19.0859 7.44192 18.9528 7.575C18.8197 7.70809 18.6392 7.78286 18.451 7.78286Z" fill="url(#paint10_linear)"/>
<defs>
<linearGradient id="paint0_linear" x1="1.41931" y1="46.8138" x2="49.6757" y2="46.8138" gradientUnits="userSpaceOnUse">
<stop stop-color="#015AAD"/>
<stop offset="1" stop-color="#00B74F"/>
</linearGradient>
<linearGradient id="paint1_linear" x1="4.09572" y1="36.8786" x2="46.8371" y2="36.8786" gradientUnits="userSpaceOnUse">
<stop stop-color="#015AAD"/>
<stop offset="1" stop-color="#00B74F"/>
</linearGradient>
<linearGradient id="paint2_linear" x1="4.09572" y1="37.9432" x2="46.8371" y2="37.9432" gradientUnits="userSpaceOnUse">
<stop stop-color="#015AAD"/>
<stop offset="1" stop-color="#00B74F"/>
</linearGradient>
<linearGradient id="paint3_linear" x1="8.77951" y1="22.3308" x2="41.8696" y2="22.3308" gradientUnits="userSpaceOnUse">
<stop stop-color="#015AAD"/>
<stop offset="1" stop-color="#00B74F"/>
</linearGradient>
<linearGradient id="paint4_linear" x1="8.77951" y1="23.0403" x2="41.8696" y2="23.0403" gradientUnits="userSpaceOnUse">
<stop stop-color="#015AAD"/>
<stop offset="1" stop-color="#00B74F"/>
</linearGradient>
<linearGradient id="paint5_linear" x1="28.5483" y1="11.3311" x2="34.0633" y2="11.3311" gradientUnits="userSpaceOnUse">
<stop stop-color="#015AAD"/>
<stop offset="1" stop-color="#00B74F"/>
</linearGradient>
<linearGradient id="paint6_linear" x1="15.7746" y1="11.3311" x2="21.2897" y2="11.3311" gradientUnits="userSpaceOnUse">
<stop stop-color="#015AAD"/>
<stop offset="1" stop-color="#00B74F"/>
</linearGradient>
<linearGradient id="paint7_linear" x1="29.2175" y1="2.97489" x2="33.3537" y2="2.97489" gradientUnits="userSpaceOnUse">
<stop stop-color="#015AAD"/>
<stop offset="1" stop-color="#00B74F"/>
</linearGradient>
<linearGradient id="paint8_linear" x1="30.5557" y1="6.15669" x2="31.9344" y2="6.15669" gradientUnits="userSpaceOnUse">
<stop stop-color="#015AAD"/>
<stop offset="1" stop-color="#00B74F"/>
</linearGradient>
<linearGradient id="paint9_linear" x1="16.4437" y1="2.97489" x2="20.5799" y2="2.97489" gradientUnits="userSpaceOnUse">
<stop stop-color="#015AAD"/>
<stop offset="1" stop-color="#00B74F"/>
</linearGradient>
<linearGradient id="paint10_linear" x1="17.7819" y1="6.15669" x2="19.1606" y2="6.15669" gradientUnits="userSpaceOnUse">
<stop stop-color="#015AAD"/>
<stop offset="1" stop-color="#00B74F"/>
</linearGradient>
</defs>
</svg>

<svg width="50" height="50" fill="none" xmlns="http://www.w3.org/2000/svg"><path d="M48.256 49.652H1.42A1.42 1.42 0 010 48.233v-2.838a1.42 1.42 0 011.42-1.42h46.836a1.42 1.42 0 011.42 1.42v2.838a1.419 1.419 0 01-1.42 1.42zM1.42 45.394v2.84h46.837v-2.84H1.42z" fill="url(#paint0_linear)"/><path d="M46.127 45.395H3.548a.71.71 0 01-.71-.71V33.33a4.973 4.973 0 014.968-4.967H41.87a4.973 4.973 0 014.967 4.967v11.355a.71.71 0 01-.71.71zm-41.87-1.42h41.16V33.33a3.552 3.552 0 00-3.547-3.548H7.806a3.552 3.552 0 00-3.548 3.548v10.645z" fill="url(#paint1_linear)"/><path d="M39.03 40.072a5.748 5.748 0 01-3.992-1.575 4.447 4.447 0 00-6.21 0 5.846 5.846 0 01-7.983 0 4.446 4.446 0 00-6.21 0 5.843 5.843 0 01-7.98 0 4.375 4.375 0 00-3.107-1.264.71.71 0 110-1.419 5.74 5.74 0 013.99 1.575 4.442 4.442 0 006.207 0 5.846 5.846 0 017.983 0 4.444 4.444 0 006.209 0 5.848 5.848 0 017.984 0 4.45 4.45 0 006.214 0 5.743 5.743 0 013.992-1.575.71.71 0 010 1.42 4.38 4.38 0 00-3.106 1.263 5.748 5.748 0 01-3.99 1.575z" fill="url(#paint2_linear)"/><path d="M41.16 29.782H8.516a.71.71 0 01-.71-.71V18.428a3.553 3.553 0 013.548-3.549h26.967a3.552 3.552 0 013.549 3.549v10.645a.71.71 0 01-.71.71zm-31.934-1.42H40.45v-9.934a2.129 2.129 0 00-2.129-2.13H11.355a2.129 2.129 0 00-2.13 2.13v9.935z" fill="url(#paint3_linear)"/><path d="M35.717 24.838a4.542 4.542 0 01-3.164-1.243 3.247 3.247 0 00-4.556 0 4.646 4.646 0 01-6.327 0 3.245 3.245 0 00-4.553 0 4.644 4.644 0 01-6.326 0 3.18 3.18 0 00-2.275-.933.71.71 0 010-1.42 4.541 4.541 0 013.162 1.244 3.244 3.244 0 004.552 0 4.646 4.646 0 016.327 0 3.246 3.246 0 004.553 0 4.647 4.647 0 016.329 0 3.249 3.249 0 004.557 0 4.542 4.542 0 013.164-1.243.71.71 0 110 1.42 3.19 3.19 0 00-2.279.932 4.543 4.543 0 01-3.164 1.243z" fill="url(#paint4_linear)"/><path d="M33.354 16.299h-4.258a.71.71 0 01-.71-.71V7.073a.71.71 0 01.71-.71h4.258a.71.71 0 01.71.71v8.516a.71.71 0 01-.71.71zm-3.549-1.42h2.839V7.783h-2.839v7.096z" fill="url(#paint5_linear)"/><path d="M20.58 16.299h-4.258a.71.71 0 01-.71-.71V7.073a.71.71 0 01.71-.71h4.258a.71.71 0 01.71.71v8.516a.71.71 0 01-.71.71zm-3.548-1.42h2.838V7.783h-2.838v7.096z" fill="url(#paint6_linear)"/><path d="M31.225 5.95a2.129 2.129 0 01-2.13-2.13c0-.885 1.065-2.743 1.522-3.5a.738.738 0 011.216 0c.456.757 1.52 2.614 1.52 3.5a2.13 2.13 0 01-2.128 2.13zm0-3.818a6.598 6.598 0 00-.71 1.69.71.71 0 001.42 0 6.59 6.59 0 00-.71-1.69z" fill="url(#paint7_linear)"/><path d="M31.225 7.783a.71.71 0 01-.71-.71V5.24a.71.71 0 011.42 0v1.833a.71.71 0 01-.71.71z" fill="url(#paint8_linear)"/><path d="M18.451 5.95a2.129 2.129 0 01-2.129-2.13c0-.885 1.065-2.743 1.521-3.5a.738.738 0 011.216 0c.456.757 1.52 2.614 1.52 3.5a2.13 2.13 0 01-2.128 2.13zm0-3.818a6.598 6.598 0 00-.71 1.69.71.71 0 001.42 0 6.59 6.59 0 00-.71-1.69z" fill="url(#paint9_linear)"/><path d="M18.451 7.783a.71.71 0 01-.71-.71V5.24a.71.71 0 011.42 0v1.833a.71.71 0 01-.71.71z" fill="url(#paint10_linear)"/><defs><linearGradient id="paint1_linear" x1="4.096" y1="36.879" x2="46.837" y2="36.879" gradientUnits="userSpaceOnUse"><stop stop-color="#015AAD"/><stop offset="1" stop-color="#00B74F"/></linearGradient><linearGradient id="paint5_linear" x1="28.548" y1="11.331" x2="34.063" y2="11.331" gradientUnits="userSpaceOnUse"><stop stop-color="#015AAD"/><stop offset="1" stop-color="#00B74F"/></linearGradient><linearGradient id="paint2_linear" x1="4.096" y1="37.943" x2="46.837" y2="37.943" gradientUnits="userSpaceOnUse"><stop stop-color="#015AAD"/><stop offset="1" stop-color="#00B74F"/></linearGradient><linearGradient id="paint3_linear" x1="8.78" y1="22.331" x2="41.87" y2="22.331" gradientUnits="userSpaceOnUse"><stop stop-color="#015AAD"/><stop offset="1" stop-color="#00B74F"/></linearGradient><linearGradient id="paint4_linear" x1="8.78" y1="23.04" x2="41.87" y2="23.04" gradientUnits="userSpaceOnUse"><stop stop-color="#015AAD"/><stop offset="1" stop-color="#00B74F"/></linearGradient><linearGradient id="paint0_linear" x1="1.419" y1="46.814" x2="49.676" y2="46.814" gradientUnits="userSpaceOnUse"><stop stop-color="#015AAD"/><stop offset="1" stop-color="#00B74F"/></linearGradient><linearGradient id="paint6_linear" x1="15.775" y1="11.331" x2="21.29" y2="11.331" gradientUnits="userSpaceOnUse"><stop stop-color="#015AAD"/><stop offset="1" stop-color="#00B74F"/></linearGradient><linearGradient id="paint7_linear" x1="29.218" y1="2.975" x2="33.354" y2="2.975" gradientUnits="userSpaceOnUse"><stop stop-color="#015AAD"/><stop offset="1" stop-color="#00B74F"/></linearGradient><linearGradient id="paint8_linear" x1="30.556" y1="6.157" x2="31.934" y2="6.157" gradientUnits="userSpaceOnUse"><stop stop-color="#015AAD"/><stop offset="1" stop-color="#00B74F"/></linearGradient><linearGradient id="paint9_linear" x1="16.444" y1="2.975" x2="20.58" y2="2.975" gradientUnits="userSpaceOnUse"><stop stop-color="#015AAD"/><stop offset="1" stop-color="#00B74F"/></linearGradient><linearGradient id="paint10_linear" x1="17.782" y1="6.157" x2="19.161" y2="6.157" gradientUnits="userSpaceOnUse"><stop stop-color="#015AAD"/><stop offset="1" stop-color="#00B74F"/></linearGradient></defs></svg>
